X:325
T:B325-  Nobody Else Shall Plunder But I
Q:1/4=120
L:1/4
M:3/4
K:D mixolydian
G,ed|[B3/2G3/2]A/G|DAB|[A2D2]G|\
G,AB|[A2D2]B|D[dB][dB]|[D3A3d3]||\
Gg2|G,g2|Dfe|[fd][e3/2^c3/2]d/|\
E[e^c][fd]|[e2^c2]d|[BG]=cd|[e2^c2]d|\
[BG]d2|E[e2^c2]|Dfg|a3/2g/f|\
G,gf|edB|Gde|dBG|\
G,AB|[A2D2]B|G,[dB][dB]|[D3A3d3|]

